X:1
T:Title
%%score { ( 1 3 5 ) | ( 2 4 6 ) }
L:1/8
Q:1/4=100
M:4/4
K:Bb
V:1 treble nm="Grand Piano"
V:3 treble 
V:5 treble 
V:2 bass 
V:4 bass 
V:6 bass 
V:1
 F2 CF G2 =EC | [_D=EA][EA]/[EA]/ [EGA][GA] [=DFA][FA][D^FA][FA] | %2
w: J.~B.~Herbert * * * * *||
 [DGB][DGB][DFG=B][GB] [=EGc]d=ec | [Acf]2 C2 D2 =E2 | F2 CF G2 =EC | %5
w: |||
 [_D=EA]A/A/ [DEA][DEA] [=DFA][DFA][DFA]A | A2 FA B2 G=E | [=EGc]c/c/ [EGc][EGc] [FAc][FAc][FAc]c | %8
w: |||
 c2 Ac d2 BG | z4 =e4 | .f2 z2 z4 |[M:9/8] [CF]2 [Ace]- [Ace]/[Ace]/ [Ace]2- [Ace] z z | %12
w: ||||
[M:4/4] d2 d2 d4 | fe[Bd]c BAGF | e2 z2 [Ae]4 | [Ad]cAF fe[Ac]A | z2 [df]2 [df]4[K:bass] | %17
w: |||||
 [df][ce][Bd]c .[FB]2 [Bd]B | g2 f2 e2 d2 | c2 B2 A2 G2 | F2 F-[Fd] [Fe]2 [CEA]2 | %21
w: ||||
 [B,DB]4 D-[DB]AG | F2 CF G2 =EC | AA/A/ AA AAAA | A2 FA B2 G=E | %25
w: ||||
 [=EGc]c/c/ [EGc][EGc] [FAc][FAc][FAc]c | c2 Ac d2 BG | [GB=e]e/e/ [GBe][GBe] e2- [Be]2 | %28
w: |||
 .f2 z2 z4 | F6[K:bass] z2 | F2 CF G2 =EC | A,-[A,-=EA]/[A,EA]/ [EGA][GA] [=DFA][FA][D^FA][FA] | %32
w: ||||
 [DGB][DGB][DFG=B][GB] [=EGc]d=ec | [Acf]2 C2 D2 =E2 | F2 CF G2 =EC | %35
w: |||
 [_D=EA]A/A/ [DEA][DEA] [=DFA][DFA][DFA]A | A2 FA B2 G=E | [=EGc]c/c/ [EGc][EGc] [FAc][FAc][FAc]c | %38
w: |||
 c2 Ac d2 BG | [GB=e]e/e/ [GBe][GBe] e2- [Be]2 | .f2 z2 z4 | %41
w: |||
[M:9/8] [CF]2 [Ace]- [Ace]/[Ace]/ [Ace]2- [Ace] z z |[M:4/4] d2 d2 d4 | fe[Bd]c BAGF | %44
w: |||
 e2 z2 [Ae]4 | [Ad]cAF fe[Ac]A | z2 [df]2 [df]4[K:bass] | [df][ce][Bd]c .[FB]2 [Bd]B | %48
w: ||||
 g2 f2 e2 d2 | c2 B2 A2 G2 | F2 F-[Fd] [Fe]2 [CEA]2 | [B,DB]4 D-[DB]AG | F2 CF G2 =EC | %53
w: |||||
 AA/A/ AA AAAA | A2 FA B2 G=E | [=EGc]c/c/ [EGc][EGc] [FAc][FAc][FAc]c | c2 Ac d2 BG | %57
w: ||||
 [GB=e]e/e/ [GBe][GBe] e2- [Be]2 | .f2 z2 z4 | z2 d2 c2 z2 | %60
w: |||
 z2 [DB]2 z4[Q:1/4=98][Q:1/4=97][Q:1/4=95][Q:1/4=94][Q:1/4=92][Q:1/4=91][Q:1/4=89][Q:1/4=88][Q:1/4=86][Q:1/4=84][Q:1/4=83][Q:1/4=81][Q:1/4=80][Q:1/4=78][Q:1/4=77] | %61
w: |
[M:3/4] [F,A,F]6 |] %62
w: |
V:2
 F,2 C,F, G,2 =E,C, | z _D/D/ z =E z =D z D | [G,,G,]2 z [DF] z[K:treble] [FG]G[=EB] | %3
 [F,CF]2 C,2 D,2 =E,2 | F,2 C,F, G,2 =E,C, | z [_D=E]/[DE]/ [A,,A,]2 [D,A,]2 z[K:treble] [=DF] | %6
 A,2[K:bass] F,A, B,2 G,=E, | z[K:treble] [=EG]/[EG]/[K:bass] [C,C]2 [F,C]2 z[K:treble] [FA] | %8
 C2 A,C D2[K:bass] B,G, | z[K:treble] [GB]/[GB]/[K:bass] [=E,=E]2 C2- [G,C]2 | %10
 F,-[F,F][K:treble][B,FB][B,DG] [CF]2[K:bass] [C,B,]2 | %11
[M:9/8] [F,A,]2 [F,A,CF]- [F,A,CF]/[F,A,CF]/[K:treble] [F,A,CF]2- [F,A,CF] z z | %12
[M:4/4] .[B,F]2[K:bass] .[F,DF]2 .[D,B,]2 .[B,,G,]2 | dc z A GF .[B,=E]2 | %14
 .[A,DF]2[K:bass] [F,A,]F, z E F,2 | z[K:treble] A .[A,EF]2 AA z F | B,2 z2 z4 | z4 z .F3 | %18
 [EGe]2 [DFd]2 [CEc]2 [B,DB]2 | [A,CA]2 [G,B,G]2[K:bass] [F,A,F]2 [E,G,E]2 | %20
 [D,F,D]2 z B, [C,A,]2 F,2 | B,,4 z B,A,G, | F,2 C,F, G,2 =E,C, | %23
 [_D=E][DE]/[DE]/ [DE][DE] [=DF][DF][DF][DF] | A,2 F,A, B,2 G,=E, | %25
 z[K:treble] [=EG]/[EG]/[K:bass] [D,C]2 [F,C]2 z[K:treble] [FA] | C2 A,C D2[K:bass] B,G, | %27
 z[K:treble] [GB]/[GB]/[K:bass] [=E,=E]2 C2- [G,C]2 | %28
 F,-[F,F][K:treble][B,FB][B,DG] [CF]2[K:bass] [C,B,]2 | [F,A,]6 z2 | F,2 C,F, G,2 =E,C, | %31
 z _D/D/ z =E z =D z D | [G,,G,]2 z [DF] z[K:treble] [FG]G[=EB] | [F,CF]2 C,2 D,2 =E,2 | %34
 F,2 C,F, G,2 =E,C, | z [_D=E]/[DE]/ [A,,A,]2 [D,A,]2 z[K:treble] [=DF] | %36
 A,2[K:bass] F,A, B,2 G,=E, | z[K:treble] [=EG]/[EG]/[K:bass] [C,C]2 [F,C]2 z[K:treble] [FA] | %38
 C2 A,C D2[K:bass] B,G, | z[K:treble] [GB]/[GB]/[K:bass] [=E,=E]2 C2- [G,C]2 | %40
 F,-[F,F][K:treble][B,FB][B,DG] [CF]2[K:bass] [C,B,]2 | %41
[M:9/8] [F,A,]2 [F,A,CF]- [F,A,CF]/[F,A,CF]/[K:treble] [F,A,CF]2- [F,A,CF] z z | %42
[M:4/4] .[B,F]2[K:bass] .[F,DF]2 .[D,B,]2 .[B,,G,]2 | dc z A GF .[B,=E]2 | %44
 .[A,DF]2[K:bass] [F,A,]F, z E F,2 | z[K:treble] A .[A,EF]2 AA z F | B,2 z2 z4 | z4 z .F3 | %48
 [EGe]2 [DFd]2 [CEc]2 [B,DB]2 | [A,CA]2 [G,B,G]2[K:bass] [F,A,F]2 [E,G,E]2 | %50
 [D,F,D]2 z B, [C,A,]2 F,2 | B,,4 z B,A,G, | F,2 C,F, G,2 =E,C, | %53
 [_D=E][DE]/[DE]/ [DE][DE] [=DF][DF][DF][DF] | A,2 F,A, B,2 G,=E, | %55
 z[K:treble] [=EG]/[EG]/[K:bass] [D,C]2 [F,C]2 z[K:treble] [FA] | C2 A,C D2[K:bass] B,G, | %57
 z[K:treble] [GB]/[GB]/[K:bass] [=E,=E]2 C2- [G,C]2 | .C2 z2 z4 | F,2 B,2 A,2 G,2 | %60
 F,2 B,,2 z2 B,2 |[M:3/4] F,,6 |] %62
V:3
 x8 | A,2 z2 z4 | x8 | x8 | x8 | x8 | x8 | x8 | x8 | [GB=e]e/e/ [GBe][GBe] c2 B2 | %10
 A-[Ac]dB A2 [=EG]2 |[M:9/8] x9 |[M:4/4] z4 z2 B2 | x8 | z C [ce]2 .F2 CA, | x8 | %16
 .[Fdf]2 z C z[K:bass] F,DB, | x8 | x8 | x8 | z2 .[DB]2 z4 | z4 .[B,B]2 z2 | x8 | x8 | x8 | x8 | %26
 x8 | z4 c2 z2 | A-[Ac]dB A2 [=EG]2 | z2[K:bass] C,A,, F,,2 z2 | x8 | .[_D=EA]2 z2 z4 | x8 | x8 | %34
 x8 | x8 | x8 | x8 | x8 | z4 c2 z2 | A-[Ac]dB A2 [=EG]2 |[M:9/8] x9 |[M:4/4] z4 z2 B2 | x8 | %44
 z C [ce]2 .F2 CA, | x8 | .[Fdf]2 z C z[K:bass] F,DB, | x8 | x8 | x8 | z2 .[DB]2 z4 | %51
 z4 .[B,B]2 z2 | x8 | x8 | x8 | x8 | x8 | z4 c2 z2 | A-[Ac][FBd][DGB] [FA]2 [B,=EG]2 | %59
 [A,F]2 F2- [C-F]2 [C=EB]2 | [CFA]2 F2- [CFA]2 [=EG]2 |[M:3/4] x6 |] %62
V:4
 x8 | A,,2 _D,2 =D,2 D,2 | z2 [G,,G,]2 [C,C]4[K:treble] | x8 | x8 | %5
 [A,,A,]2 z2 z2 [D,A,]2[K:treble] | x2[K:bass] x6 | %7
 [C,C]2[K:treble][K:bass] z2 z2 [F,C]2[K:treble] | x6[K:bass] x2 | %9
 [=E,=E]2[K:treble][K:bass] z2 A,2 z2 | .C2[K:treble] z2 z4[K:bass] |[M:9/8] x4[K:treble] x5 | %12
[M:4/4] x2[K:bass] x6 | [B,,D]2 [D,D]2 [G,D-]2 D2 | z4[K:bass] C,2 z2 | %15
 [F,E]2[K:treble] z2 [CE-]2 E2 | z E .[F,D]2 .[D,B,]2 B,,2 | [B,F]2 z A z2 z F | x8 | %19
 x4[K:bass] x4 | z2 B,,2 z4 | z4 B,,2 z2 | x8 | A,4 A,4 | x8 | %25
 [C,C]2[K:treble][K:bass] z2 z2 [F,C]2[K:treble] | x6[K:bass] x2 | %27
 [=E,=E]2[K:treble][K:bass] z2 A,2 z2 | .C2[K:treble] z2 z4[K:bass] | x8 | x8 | %31
 A,,2 _D,2 =D,2 D,2 | z2 [G,,G,]2 [C,C]4[K:treble] | x8 | x8 | [A,,A,]2 z2 z2 [D,A,]2[K:treble] | %36
 x2[K:bass] x6 | [C,C]2[K:treble][K:bass] z2 z2 [F,C]2[K:treble] | x6[K:bass] x2 | %39
 [=E,=E]2[K:treble][K:bass] z2 A,2 z2 | .C2[K:treble] z2 z4[K:bass] |[M:9/8] x4[K:treble] x5 | %42
[M:4/4] x2[K:bass] x6 | [B,,D]2 [D,D]2 [G,D-]2 D2 | z4[K:bass] C,2 z2 | %45
 [F,E]2[K:treble] z2 [CE-]2 E2 | z E .[F,D]2 .[D,B,]2 B,,2 | [B,F]2 z A z2 z F | x8 | %49
 x4[K:bass] x4 | z2 B,,2 z4 | z4 B,,2 z2 | x8 | A,4 A,4 | x8 | %55
 [C,C]2[K:treble][K:bass] z2 z2 [F,C]2[K:treble] | x6[K:bass] x2 | %57
 [=E,=E]2[K:treble][K:bass] z2 A,2 z2 | F,-[F,F]B,B, C2 C,2 | x8 | z4 C,4 |[M:3/4] x6 |] %62
V:5
 x8 | x8 | x8 | x8 | x8 | x8 | x8 | x8 | x8 | x8 | x8 |[M:9/8] x9 |[M:4/4] z E z C F-[A,F] z F, | %13
 x8 | x8 | x8 | x5[K:bass] x3 | x8 | x8 | x8 | x8 | x8 | x8 | x8 | x8 | x8 | x8 | x8 | x8 | %29
 x2[K:bass] x6 | x8 | x8 | x8 | x8 | x8 | x8 | x8 | x8 | x8 | x8 | x8 |[M:9/8] x9 | %42
[M:4/4] z E z C F-[A,F] z F, | x8 | x8 | x8 | x5[K:bass] x3 | x8 | x8 | x8 | x8 | x8 | x8 | x8 | %54
 x8 | x8 | x8 | x8 | x8 | x8 | x8 |[M:3/4] x6 |] %62
V:6
 x8 | x8 | x5[K:treble] x3 | x8 | x8 | x7[K:treble] x | x2[K:bass] x6 | %7
 x[K:treble] x[K:bass] x5[K:treble] x | x6[K:bass] x2 | x[K:treble] x[K:bass] x6 | %10
 x2[K:treble] x4[K:bass] x2 |[M:9/8] x4[K:treble] x5 |[M:4/4] x2[K:bass] x6 | x8 | x2[K:bass] x6 | %15
 z4[K:treble] z2 F,2 | x8 | z2 [F,F]2 D2 B,2 | x8 | x4[K:bass] x4 | x8 | x8 | x8 | x8 | x8 | %25
 x[K:treble] x[K:bass] x5[K:treble] x | x6[K:bass] x2 | x[K:treble] x[K:bass] x6 | %28
 x2[K:treble] x4[K:bass] x2 | x8 | x8 | x8 | x5[K:treble] x3 | x8 | x8 | x7[K:treble] x | %36
 x2[K:bass] x6 | x[K:treble] x[K:bass] x5[K:treble] x | x6[K:bass] x2 | x[K:treble] x[K:bass] x6 | %40
 x2[K:treble] x4[K:bass] x2 |[M:9/8] x4[K:treble] x5 |[M:4/4] x2[K:bass] x6 | x8 | x2[K:bass] x6 | %45
 z4[K:treble] z2 F,2 | x8 | z2 [F,F]2 D2 B,2 | x8 | x4[K:bass] x4 | x8 | x8 | x8 | x8 | x8 | %55
 x[K:treble] x[K:bass] x5[K:treble] x | x6[K:bass] x2 | x[K:treble] x[K:bass] x6 | x8 | x8 | x8 | %61
[M:3/4] x6 |] %62

